dist/img/svg/phylosophy.svg

<svg width="39" height="46" viewBox="0 0 39 46" fill="none" xmlns="http://www.w3.org/2000/svg">
<path d="M4.31152 39.7841C4.31152 40.0436 4.53148 40.2538 4.80271 40.2538H33.7311C34.0023 40.2538 34.2223 40.0436 34.2223 39.7841C34.2223 39.5247 34.0023 39.3145 33.7311 39.3145H4.80271C4.53148 39.3145 4.31152 39.5247 4.31152 39.7841Z" fill="#368CBF"/>
<path d="M33.7311 41.0518H4.80271C4.53148 41.0518 4.31152 41.262 4.31152 41.5214C4.31152 41.7809 4.53148 41.9911 4.80271 41.9911H33.7311C34.0023 41.9911 34.2223 41.7809 34.2223 41.5214C34.2223 41.262 34.0023 41.0518 33.7311 41.0518Z" fill="#368CBF"/>
<path d="M38.5088 0H4.43578C1.98988 0 0 1.90271 0 4.24137V40.5702C0 44.5779 2.89022 46 5.3652 46H38.5088C38.78 46 39 45.7898 39 45.5303V0.469667C39 0.210223 38.7801 0 38.5088 0ZM5.3653 45.0607C4.63344 45.0607 0.982466 44.8442 0.982466 40.5702V4.24137C0.982368 2.42066 2.53156 0.939333 4.43578 0.939333H4.87412V30.3184C4.87412 30.5778 5.09407 30.7881 5.3653 30.7881C5.63653 30.7881 5.85648 30.5778 5.85648 30.3184V0.939333H38.0177V35.3703H5.85648V33.9252C5.85648 33.6658 5.63653 33.4556 5.3653 33.4556C5.09407 33.4556 4.87412 33.6658 4.87412 33.9252V35.3703H4.70878C3.95943 35.3703 3.10782 35.6676 2.31082 36.2075C2.0895 36.3575 2.03714 36.6505 2.19402 36.8623C2.2898 36.9915 2.44138 37.0605 2.59522 37.0604C2.69336 37.0604 2.79258 37.0323 2.87873 36.9739C3.51108 36.5455 4.16102 36.3097 4.70869 36.3097H38.0175V37.2862H35.9752H33.8712H5.53849C3.64478 37.2862 2.10404 38.7594 2.10404 40.5702C2.10404 42.3809 3.64478 43.8542 5.53849 43.8542H35.9753C36.2465 43.8542 36.4665 43.644 36.4665 43.3845V38.2255H38.0176V45.0607H5.3653ZM33.8713 38.2255H35.4841V42.9149H5.53849C4.18636 42.9149 3.0864 41.8631 3.0864 40.5702C3.0864 39.2773 4.18636 38.2255 5.53849 38.2255H33.8713Z" fill="#368CBF"/>
<path d="M16.1365 11.7107H16.8217C16.8614 11.7107 16.9669 11.8151 16.9826 12.0086L17.0011 12.2372C17.197 14.6776 17.3835 16.9901 20.1441 17.2547V20.8059H19.438C19.1668 20.8059 18.9469 21.0162 18.9469 21.2756C18.9469 21.535 19.1668 21.7453 19.438 21.7453H21.8464C22.1176 21.7453 22.3376 21.535 22.3376 21.2756C22.3376 21.0162 22.1176 20.8059 21.8464 20.8059H21.1264V17.2636C23.9995 17.0551 24.187 14.735 24.3827 12.2836L24.4048 12.0086C24.4205 11.8151 24.526 11.7107 24.5657 11.7107H25.2523C25.5235 11.7107 25.7435 11.5005 25.7435 11.2411C25.7435 10.9816 25.5235 10.7714 25.2523 10.7714H24.5657C23.9695 10.7714 23.4793 11.2721 23.4255 11.9359L23.4033 12.2119C23.1956 14.8124 22.9999 16.153 21.1264 16.3221V11.7107H21.8464C22.1176 11.7107 22.3376 11.5004 22.3376 11.241C22.3376 10.9815 22.1176 10.7713 21.8464 10.7713H20.7047C20.6818 10.7682 20.659 10.7646 20.6352 10.7646C20.6115 10.7646 20.5887 10.7682 20.5658 10.7713H19.438C19.1668 10.7713 18.9469 10.9815 18.9469 11.241C18.9469 11.5004 19.1668 11.7107 19.438 11.7107H20.1441V16.3093C18.3809 16.0924 18.1872 14.7392 17.9806 12.1652L17.9621 11.9359C17.9083 11.2721 17.418 10.7714 16.8219 10.7714H16.1367C15.8655 10.7714 15.6455 10.9816 15.6455 11.2411C15.6455 11.5005 15.8653 11.7107 16.1365 11.7107Z" fill="#368CBF"/>
<path d="M13.0147 30.5121C13.0147 30.7716 13.2346 30.9818 13.5059 30.9818H23.004C23.1472 30.9818 23.2834 30.922 23.3767 30.8181C23.47 30.7141 23.5113 30.5764 23.4895 30.4408L22.6817 25.4072H28.7774C29.8607 25.4072 30.7421 24.5644 30.7421 23.5285V19.7713H32.9556C33.1287 19.7713 33.2892 19.6841 33.3777 19.5419C33.4663 19.3995 33.4698 19.2231 33.3872 19.0776L30.9036 14.7044C30.4667 9.58765 25.9723 5.63184 20.5972 5.63184C20.5583 5.63184 20.5184 5.63212 20.4794 5.63249C14.8581 5.69289 10.2725 10.1159 10.2574 15.4924C10.2503 18.0113 11.2282 20.3999 13.0146 22.241V30.5121H13.0147ZM20.4904 6.57183C20.526 6.57145 20.5614 6.57117 20.597 6.57117C25.4946 6.57117 29.585 10.2005 29.932 14.8765C29.938 14.9573 29.965 15.0317 30.0078 15.0955L32.1299 18.832H30.2509C29.9797 18.832 29.7597 19.0422 29.7597 19.3017V23.5285C29.7597 24.0464 29.319 24.4678 28.7774 24.4678H20.5981C19.2696 24.4678 17.9863 24.2073 16.7837 23.6934C16.5361 23.5873 16.2455 23.6938 16.1349 23.9305C16.0243 24.1673 16.1353 24.4452 16.3829 24.5509C17.7124 25.1191 19.1305 25.4071 20.5981 25.4071H21.6878L22.4317 30.0424H13.997V22.054C13.997 22.0364 13.9936 22.0194 13.9915 22.0023C13.9903 21.9912 13.9902 21.9801 13.988 21.969C13.9841 21.9483 13.9774 21.9287 13.9707 21.9091C13.9676 21.8998 13.9655 21.8904 13.9617 21.8813C13.953 21.8605 13.942 21.8413 13.9305 21.8222C13.9261 21.8148 13.9228 21.8071 13.9179 21.7999C13.9027 21.7776 13.8852 21.757 13.8665 21.7375C13.8637 21.7345 13.8619 21.7312 13.8589 21.7283C13.8576 21.727 13.8566 21.7257 13.8553 21.7245C13.8541 21.7234 13.8531 21.7221 13.8519 21.721C12.1609 20.0396 11.2331 17.8289 11.2396 15.4947C11.2535 10.6293 15.4033 6.6264 20.4904 6.57183Z" fill="#368CBF"/>
</svg>

<svg width="39" height="46" viewBox="0 0 39 46" fill="none" xmlns="http://www.w3.org/2000/svg"><path d="M4.312 39.784c0 .26.22.47.49.47h28.93a.48.48 0 00.49-.47.48.48 0 00-.49-.47H4.801a.48.48 0 00-.49.47zm29.419 1.268H4.803a.48.48 0 00-.491.47c0 .259.22.47.49.47h28.93a.48.48 0 00.49-.47.48.48 0 00-.49-.47z" fill="#368CBF"/><path d="M38.509 0H4.436C1.99 0 0 1.903 0 4.241v36.33C0 44.577 2.89 46 5.365 46H38.51a.48.48 0 00.491-.47V.47A.48.48 0 0038.51 0zM5.365 45.06c-.732 0-4.383-.216-4.383-4.49V4.241C.982 2.421 2.532.94 4.436.94h.438v29.38c0 .259.22.47.491.47a.48.48 0 00.491-.47V.938h32.162V35.37H5.856v-1.445a.48.48 0 00-.49-.47.48.48 0 00-.492.47v1.445H4.71c-.75 0-1.601.298-2.398.838a.457.457 0 00-.117.654.504.504 0 00.685.112c.632-.429 1.282-.664 1.83-.664h33.309v.976H5.538c-1.893 0-3.434 1.473-3.434 3.284 0 1.81 1.54 3.284 3.434 3.284h30.437a.48.48 0 00.492-.47v-5.159h1.55v6.836H5.366zm28.506-6.835h1.613v4.69H5.538c-1.352 0-2.452-1.052-2.452-2.345 0-1.293 1.1-2.345 2.452-2.345h28.333z" fill="#368CBF"/><path d="M16.137 11.71h.685c.04 0 .145.105.16.299l.02.228c.195 2.44.382 4.753 3.142 5.018v3.55h-.706a.48.48 0 00-.491.47c0 .26.22.47.491.47h2.408a.48.48 0 00.492-.47.48.48 0 00-.492-.47h-.72v-3.541c2.873-.209 3.061-2.529 3.257-4.98l.022-.275c.015-.194.121-.298.16-.298h.687a.48.48 0 00.492-.47.48.48 0 00-.492-.47h-.686c-.596 0-1.087.501-1.14 1.165l-.023.276c-.207 2.6-.403 3.941-2.277 4.11v-4.611h.72a.48.48 0 00.492-.47.48.48 0 00-.492-.47h-1.141a.536.536 0 00-.07-.006c-.024 0-.046.003-.07.006h-1.127a.48.48 0 00-.491.47c0 .26.22.47.491.47h.706v4.598c-1.763-.217-1.957-1.57-2.163-4.144l-.019-.23c-.054-.663-.544-1.164-1.14-1.164h-.685a.48.48 0 00-.492.47c0 .26.22.47.492.47z" fill="#368CBF"/><path d="M13.015 30.512c0 .26.22.47.49.47h9.499c.143 0 .28-.06.373-.164a.456.456 0 00.113-.377l-.808-5.034h6.095c1.084 0 1.965-.843 1.965-1.878V19.77h2.214a.496.496 0 00.422-.23.452.452 0 00.01-.463l-2.484-4.374c-.437-5.116-4.932-9.072-10.307-9.072h-.118c-5.62.06-10.206 4.484-10.222 9.86-.007 2.52.971 4.908 2.758 6.749v8.271zm7.475-23.94h.107c4.898 0 8.988 3.628 9.335 8.305.006.08.033.155.076.218l2.122 3.737h-1.88a.48.48 0 00-.49.47v4.227c0 .517-.441.939-.983.939h-8.179a9.65 9.65 0 01-3.814-.775.5.5 0 00-.65.237.462.462 0 00.249.62c1.33.57 2.748.857 4.215.857h1.09l.744 4.635h-8.435v-7.988c0-.018-.003-.035-.005-.052l-.004-.033a.45.45 0 00-.017-.06c-.003-.01-.005-.019-.01-.028a.456.456 0 00-.03-.059l-.013-.022a.487.487 0 00-.051-.063l-.008-.009-.004-.004-.003-.003c-1.691-1.681-2.619-3.892-2.612-6.226.014-4.866 4.163-8.869 9.25-8.923z" fill="#368CBF"/></svg>
